proprietary/assets/icons/infrastructuur-en-transport/aquaduct.svg

<svg height="64" viewBox="0 0 64 64" width="64" xmlns="http://www.w3.org/2000/svg"><path d="m0 0h64v64h-64z" fill="none"/><path d="m9.7608 63h17.9821l2.9332-21h-5.5966z"/><path d="m33.3267 42 2.9341 21h17.9821l-15.3219-21z"/><path d="m2 32v6h5v13h5.8271l5.1729-5.5858v-5.9088l-5.7349-1.1414c-.3172-.1018-.2708-.3079-.2499-.3641h39.9696c.0209.0562.0673.2623-.2499.3641l-5.7349 1.1414v5.9088l5.1728 5.5858h5.8272v-13h5v-6z"/><path d="m51 23.0333c-3.5046 0-6.3637.0688-8.8081.1806l-1.0025-3.4565c-.1113-.4451-.5113-.7574-.9702-.7574h-17.7792l-1.2921 5.9642c-1.8451.0716-3.924.1144-6.3595.1144-.4656 0-.8535.3466-.9448.8032l-.8436 4.1182h35zm-20 1.1467c-1.2894.1451-2.5884.2867-4 .4131v-3.5931h4zm3-.3341v-2.8459h3.85l.6091 2.4363c-1.6382.122-3.0871.2627-4.4591.4096z"/></svg>

<?xml version="1.0" encoding="utf-8"?>
<!-- Generator: Adobe Illustrator 17.1.0, SVG Export Plug-In . SVG Version: 6.00 Build 0)  -->
<svg version="1.2" baseProfile="tiny" xmlns="http://www.w3.org/2000/svg" xmlns:xlink="http://www.w3.org/1999/xlink" x="0px"
	 y="0px" width="64px" height="64px" viewBox="0 0 64 64" xml:space="preserve">
<g id="_x36_4px_Boxes">
	<rect fill="none" width="64" height="64"/>
</g>
<g id="Production">
	<g>
		<polygon points="9.7608,63 27.7429,63 30.6761,42 25.0795,42 		"/>
		<polygon points="33.3267,42 36.2608,63 54.2429,63 38.921,42 		"/>
		<path d="M2,32v6h5v13h5.8271L18,45.4142v-5.9088l-5.7349-1.1414c-0.3172-0.1018-0.2708-0.3079-0.2499-0.3641h39.9696
			c0.0209,0.0562,0.0673,0.2623-0.2499,0.3641L46,39.5054v5.9088L51.1728,51H57V38h5v-6H2z"/>
		<path d="M51,23.0333c-3.5046,0-6.3637,0.0688-8.8081,0.1806l-1.0025-3.4565C41.0781,19.3123,40.6781,19,40.2192,19H22.44
			l-1.2921,5.9642c-1.8451,0.0716-3.924,0.1144-6.3595,0.1144c-0.4656,0-0.8535,0.3466-0.9448,0.8032L13,30h35L51,23.0333z
			 M31,24.18c-1.2894,0.1451-2.5884,0.2867-4,0.4131V21h4V24.18z M34,23.8459V21h3.85l0.6091,2.4363
			C36.8209,23.5583,35.372,23.699,34,23.8459z"/>
	</g>
</g>
</svg>
